X:1
T:Title
%%score [ 1 2 3 4 ]
L:1/8
Q:1/4=160
M:none
K:F
V:1 treble nm="Soprano" snm="S"
V:2 treble nm="Alto" snm="A"
V:3 treble-8 nm="Tenor" snm="T"
V:4 bass nm="Bass" snm="B"
V:1
"^Benedicta sit sancta Trinitas" c12 c4 | A8 d8 | c4 c8 B4 | A6 G2 G8 | %4
w: Be- ne-|di- cta|sit san- cta|Tri- ni- tas,|
 E12"^Agostino Agazzari\n(1578-1640)" D4 | G8 A8 | G4 c8 B4 | A6 G2 G8 |[M:4/2] z16 | z8 G6 C2 | %10
w: be- ne-|di- cta|sit san- cta|Tri- ni- tas,||at- que|
 c6 c2 A2 G2 G3 ^F | G8 B6 F2 | B2 c2 d3 G c6 c2 | d4 d2 d2 B3 A G2 (B2- | BABG c2 B2) A4 d2 d2 | %15
w: in- di- vi- sa u- ni-|tas, at- que|in- di- vi- sa u- ni-|tas: con- fi- te- bi- mur e\-|* * * * * * i, con- fi-|
 B3 A G4 z4 c2 c2 | A3 B c4 z4 B2 B2 | G3 G c4 c8 | c8 G8- | G4 F4 B8 | B4 c4 d8 | c4 F4 A4 B4 | %22
w: te- bi- mur, con- fi-|te- bi- mur, con- fi-|te- bi- mur e-|i: Qui\-|* a fe-|cit no- bis-|cum mi- se- ri-|
 c12 d4 | _e8 (c2 d2 e2 c2 | d8) c8 | z16 | z16 | z4 B4 c4 d4 | _e6 e2 e2 (_EF GABG | c8) d4 d4 | %30
w: cor- di-|am su\- * * *|* am,|||mi- se- ri-|cor- di- am su- * * * * *|* am, mi-|
 c4 B4 (A6 GF | G4) =B4 c8 | (d2 c2 B2 A2 G4 A4) | G8 z4 c4 | A2 (B3 A G3 F F4 E2) | F8 z8 | %36
w: se- ri- cor\- * *|* di- am|su\- * * * * *|am. Al-|le- lu\- * * * * *|ia,|
 z4 c4 A2 (B3 A G2) | A8 z4 d4 | c2 (d3 cBA G4) c4 | z2 d2 B2 (d2- dcBA G4) | %40
w: al- le- lu\- * *|ia, al-|le- lu\- * * * * ia,|al- le- lu\- * * * * *|
[Q:1/4=157] A4[Q:1/4=154] z2[Q:1/4=152] A2[Q:1/4=150] F2[Q:1/4=148] D2[Q:1/4=145] F2[Q:1/4=143] f2 | %41
w: ia, al- le- lu- ia, al-|
[Q:1/4=139] d6[Q:1/4=135] d2[Q:1/4=135] !fermata!c8 |] %42
w: le- lu- ia.|
V:2
 A12 G4 | c8 B8 | A4 A8 G4 | F6 D2 E8 | z4 G8 G4 | E8 F8 | E4 A8 G4 | F6 D2 E8 | %8
w: Be- ne-|di- cta|sit san- cta|Tri- ni- tas,|be- ne-|di- cta|sit san- cta|Tri- ni- tas,|
[M:4/2] A6 D2 D2 C2 F2 E2 | D6 D2 E4 G4- | G2 F2 A2 G2 c2 B2 A3 A | G4 G6 D2 d4- | %12
w: at- que in- di- vi- sa|u- ni- tas, at\-|* que in- di- vi- sa u- ni-|tas, at- que in\-|
 d2 c2 B4 A2 B4 A2 | B8 d2 d2 B3 A | G2 (G2- G^FGE F2 G4 F2) | G2 dd B3 A B4 z4 | %16
w: * di- vi- sa u- ni-|tas: con- fi- te- bi-|mur e\- * * * * * * *|i, con- fi- te- bi- mur,|
 c2 c2 A3 G A4 z4 | c2 c2 A2 GF G8 | A8 B8- | B4 B4 G8 | d4 c4 B8 | A4 A4 F4 G4 | %22
w: con- fi- te- bi- mur,|con- fi- te- bi- mur e-|i: Qui\-|* a fe-|cit no- bis-|cum mi- se- ri-|
 (A2 G2 A2 F2 G4) F4 | G4 (C2 D2 _E2 C2 c4- | c4 =B4) c4 G4 | G4 A4 B6 B2 | B4 (cBAG A8) | %27
w: cor\- * * * * di-|am su\- * * * *|* * am, mi-|se- ri- cor- di-|am su\- * * * *|
 G4 z2 G2 A4 =B4 | c6 c2 (B3 A G4) | (A2 B4 A2) B4 F4 | A4 B4 c8- | c4 F4 (G6 A2 | %32
w: am, mi- se- ri-|cor- di- am * *|su\- * * am, mi-|se- ri- cor\-|* di- am *|
 B2 A2 G2 F2 E4) F4- | F4 E4 F4 A4- | A2 F2 (G3 A B2 A2 G4) | A2 c4 A2 (B3 A G4- | %36
w: * * * * * su\-|* * am. Al\-|* le- lu\- * * * *|ja, al- le- lu\- * *|
 G4) A2 A4 F2 (G3 F | _EF G4 ^F2) G4 z4 | F4 D2 (G3 A B4 A2) | B2 B2 F2 (B2- BAGF E4) | %40
w: * ia, al- le- lu\- *|* * * * ia,|al- le- lu\- * * *|ia, al- le- lu\- * * * * *|
 F2 A2 F2 A2 B4 d2 c2 | B8 !fermata!A8 |] %42
w: ia, al- le- lu- ia, al- le-|lu- ia.|
V:3
 f12 e4 | f8 d8 | f4 F8 G4 | A6 B2 c8 | c12 d4 | c8 c8 | c8 z8 | z8 z4 c4- | %8
w: Be- ne-|di- eta|sit san- eta|Tri- ni- tas,|be- ne-|di- età|sit,|at\-|
[M:4/2][K:treble-8] c2 F2 f4- f2 f2 d2 c2 | c4 =B4 c4 c4- | c2 F2 f2 e2 f2 g2 d3 d | G8 z4 f2 d2 | %12
w: * que in\- * di- vi- sa|u- ni- tas, at\-|* que in- di- vi- sa u- ni-|tas, at- que|
 f2 f2 f2 e2 f6 f2 | f8 z4 g2 g2 | _e3 d c4 d8 | G8 g2 g2 _e3 c | f8 f2 f2 d3 d | e4 (f8 e4) | %18
w: in- di- vi- sa u- ni-|tas: con- fi-|te- bi- mur e-|i, con- fi- te- bi-|mur, con- fi- te- bi-|mur e\- *|
 f8 _e8- | e4 f4 _e4 B4 | z4 f4 f8 | f8 z8 | z4 f4 _e4 d4 | c6 B2 _A8 | G8 c4 _e4 | d4 c4 d6 d2 | %26
w: i: Qui\-|* a fe- cit|no- bis-|cum|mi- se- ri-|cor- di- am|su- am, mi-|se- ri- cor- di-|
 _e4 (g6 ^f=e f4) | g8 z8 | z16 | z8 z4 B4 | A4 G4 F8 | c4 d4 (_e2 f2 g2 =e2 | f4) d4 z8 | %33
w: am su\- * * *|am,||mi-|se- ri- cor-|di- am su\- * * *|* am,|
 c8 c6 f2- | f2 d2 (_e3 d B4 c4) | F4 A4 F2 (G3 F f2- | f2 e2) f2 f4 d2 (_e3 d | c4 d4) (GABc d4) | %38
w: su- am. Al-|* le- lu\- * * *|ia, al- le- lu\- * *|* * ia, al- le- lu\- *|* * ia, * * * *|
 z8 z4 f4 | d2 (f2- f_edc B4 c4) | F4 z2 f2 d2 f2 B2 c2 | f4 f4 !fermata!f8 |] %42
w: al-|le- lu\- * * * * * *|ja, al- le- lu- ia, al-|le- lu- ia.|
V:4
 z16 | z16 | z16 | z16 | C,12 =B,,4 | C,8 A,,8 | C,4 F,,8 G,,4 | A,,6 B,,2 C,8 | %8
w: ||||Be- ne-|di- cta|sit san- cta|Tri- ni- tas,|
[M:4/2] F,6 B,,2 B,2 A,2 B,2 C2 | G,6 G,2 C,8 | z16 | z4 _E,6 B,,2 B,4- | B,2 A,2 B,2 G,2 F,6 F,2 | %13
w: at- que in- di- vi- sa|u- ni- tas,||at- que in\-|* di- vi- sa u- ni-|
 B,,8 z8 | z16 | z4 G,2 G,2 _E,3 D, C,4 | z4 F,2 F,2 D,3 C, B,,4 | C,8 C,8 | z8 _E,8- | %19
w: tas:||con- fi- te- bi- mur,|con- fi- te- bi- mur|e- i:|Qui\-|
 E,4 D,4 _E,8 | B,,4 A,,4 B,,8 | F,,8 z8 | z16 | z16 | z8 z4 C4 | B,4 A,4 G,6 G,2 | _E,8 D,8 | %27
w: * a fe-|cit no- bis-|cum|||mi-|se- ri- cor- di-|am su-|
 G,,4 G,4 F,4 D,4 | C,6 C,2 _E,8 | F,8 B,,8 | z8 z4 F,4 | _E,4 D,4 C,6 C,2 | B,,8 C,8- | C,8 F,,8 | %34
w: am, mi- se- ri-|cor- di- am|su- am,|mi-|se- ri- cor- di-|am su\-|* am.|
 z16 | z4 F,4 D,2 (_E,3 D, B,,2 | C,4) F,,4 z8 | z8 z4 B,4 | A,2 (B,3 A,G,F, _E,4 F,4) | B,,8 z8 | %40
w: |al- le- lu\- * *|* ia,|al-|le- lu\- * * * * *|ia,|
 z2 F,2 D,2 F,2 B,,2 B,,4 A,,2 | B,,8 !fermata!F,,8 |] %42
w: al- le- lu- ja, al- le-|lu- ia.|

